assets/misc-grey/MiscGrey65.svg

<svg width="40" height="38" viewBox="0 0 40 38" fill="none" xmlns="http://www.w3.org/2000/svg">
<path fill-rule="evenodd" clip-rule="evenodd" d="M36.918 25.28C36.918 25.37 36.723 25.56 36.418 25.56H18.668C18.644 25.56 18.621 25.56 18.597 25.57C18.545 25.57 18.493 25.57 18.44 25.58C18.394 25.59 18.347 25.6 18.301 25.61C18.254 25.62 18.208 25.64 18.162 25.65C18.114 25.67 18.068 25.69 18.023 25.71C17.982 25.73 17.942 25.75 17.902 25.78C17.855 25.8 17.81 25.83 17.767 25.87C17.749 25.88 17.728 25.89 17.71 25.9L9.16803 32.99V27.06C9.16803 26.23 8.49703 25.56 7.66803 25.56H3.91803C3.61303 25.56 3.41803 25.37 3.41803 25.28V3.86997C3.41803 3.77997 3.61303 3.58997 3.91803 3.58997H36.418C36.723 3.58997 36.918 3.77997 36.918 3.86997V25.28ZM36.418 0.589966H3.91803C1.98803 0.589966 0.41803 2.05997 0.41803 3.86997V25.28C0.41803 27.09 1.98803 28.56 3.91803 28.56H6.16803V36.18C6.16803 36.76 6.50403 37.29 7.03003 37.54C7.23403 37.64 7.45103 37.68 7.66703 37.68C8.01103 37.68 8.35103 37.57 8.62503 37.34L19.209 28.56H36.418C38.348 28.56 39.918 27.09 39.918 25.28V3.86997C39.918 2.05997 38.348 0.589966 36.418 0.589966Z" fill="#1A1919"/>
</svg>

<svg xmlns="http://www.w3.org/2000/svg" viewBox="0 0 40 38"><path fill-rule="evenodd" d="M36.918 25.28c0 .09-.195.28-.5.28h-17.75c-.024 0-.047 0-.071.01-.052 0-.104 0-.157.01l-.139.03c-.047.01-.093.03-.139.04l-.139.06a.713.713 0 00-.121.07.468.468 0 00-.135.09l-.057.03-8.542 7.09v-5.93c0-.83-.671-1.5-1.5-1.5h-3.75c-.305 0-.5-.19-.5-.28V3.87c0-.09.195-.28.5-.28h32.5c.305 0 .5.19.5.28v21.41zm-.5-24.69h-32.5c-1.93 0-3.5 1.47-3.5 3.28v21.41c0 1.81 1.57 3.28 3.5 3.28h2.25v7.62c0 .58.336 1.11.862 1.36.204.1.421.14.637.14.344 0 .684-.11.958-.34l10.584-8.78h17.209c1.93 0 3.5-1.47 3.5-3.28V3.87c0-1.81-1.57-3.28-3.5-3.28z" clip-rule="evenodd"/></svg>
